src/lib/packages/icons/src/assets/line/video-eye.svg

<svg width="24" height="24" viewBox="0 0 24 24" fill="none" xmlns="http://www.w3.org/2000/svg">
<path d="M21.8999 6.20801C21.3739 5.95601 20.766 6.02492 20.312 6.38892L17.75 8.43896V8C17.75 5.582 16.418 4.25 14 4.25H5C2.582 4.25 1.25 5.582 1.25 8V16C1.25 18.418 2.582 19.75 5 19.75H14C16.418 19.75 17.75 18.418 17.75 16V15.561L20.313 17.6121C20.585 17.8301 20.9141 17.9419 21.2471 17.9419C21.4681 17.9419 21.6899 17.893 21.8999 17.792C22.4229 17.54 22.75 17.0209 22.75 16.4399V7.56104C22.75 6.97904 22.4239 6.46101 21.8999 6.20801ZM16.25 16C16.25 17.577 15.577 18.25 14 18.25H5C3.423 18.25 2.75 17.577 2.75 16V8C2.75 6.423 3.423 5.75 5 5.75H14C15.577 5.75 16.25 6.423 16.25 8V16ZM21.25 16.4399L17.75 13.6399V10.3611L21.25 7.56104V16.4399ZM9.5 8.125C7.081 8.125 5.66611 9.90003 5.03711 10.957C4.65411 11.601 4.65411 12.4 5.03711 13.043C5.66611 14.101 7.081 15.876 9.5 15.876C11.918 15.876 13.3339 14.1019 13.9629 13.0439C14.3459 12.3999 14.3459 11.601 13.9629 10.958C13.3339 9.90001 11.919 8.125 9.5 8.125ZM12.6741 12.2749C12.6741 12.2749 12.6741 12.2759 12.6741 12.2749C12.2081 13.0599 11.176 14.375 9.5 14.375C7.824 14.375 6.79193 13.0599 6.32593 12.2749C6.22393 12.1059 6.22393 11.8951 6.32593 11.7241C6.79193 10.9401 7.824 9.625 9.5 9.625C11.176 9.625 12.2081 10.9401 12.6741 11.7251C12.7751 11.8951 12.7751 12.1049 12.6741 12.2749ZM10.52 12C10.52 12.552 10.073 13 9.52002 13C8.96802 13 8.51489 12.552 8.51489 12C8.51489 11.448 8.95801 11 9.51001 11H9.52002C10.072 11 10.52 11.448 10.52 12Z" fill="currentColor"/>
</svg>

<svg xmlns="http://www.w3.org/2000/svg" width="24" height="24" fill="none"><path fill="currentColor" d="M21.9 6.208a1.49 1.49 0 0 0-1.588.18L17.75 8.44V8c0-2.418-1.332-3.75-3.75-3.75H5C2.582 4.25 1.25 5.582 1.25 8v8c0 2.418 1.332 3.75 3.75 3.75h9c2.418 0 3.75-1.332 3.75-3.75v-.439l2.563 2.051a1.49 1.49 0 0 0 1.587.18c.523-.252.85-.771.85-1.352V7.56c0-.582-.326-1.1-.85-1.353ZM16.25 16c0 1.577-.673 2.25-2.25 2.25H5c-1.577 0-2.25-.673-2.25-2.25V8c0-1.577.673-2.25 2.25-2.25h9c1.577 0 2.25.673 2.25 2.25v8Zm5 .44-3.5-2.8v-3.28l3.5-2.8v8.879ZM9.5 8.125c-2.419 0-3.834 1.775-4.463 2.832a2.037 2.037 0 0 0 0 2.086c.63 1.058 2.044 2.833 4.463 2.833 2.418 0 3.834-1.774 4.463-2.832a2.037 2.037 0 0 0 0-2.086C13.333 9.9 11.919 8.125 9.5 8.125Zm3.174 4.15c-.466.785-1.498 2.1-3.174 2.1s-2.708-1.315-3.174-2.1a.534.534 0 0 1 0-.55c.466-.785 1.498-2.1 3.174-2.1s2.708 1.315 3.174 2.1c.101.17.101.38 0 .55ZM10.52 12a1 1 0 0 1-1 1 1.005 1.005 0 0 1-1.005-1c0-.552.443-1 .995-1h.01a1 1 0 0 1 1 1Z"/></svg>
